libs/islamic-website/markets-page/src/assets/images/bitget.svg

<svg fill="none" height="40" viewBox="0 0 38 40" width="38" xmlns="http://www.w3.org/2000/svg"><path clip-rule="evenodd" d="m10.6864 25.6447h9.8829l-11.24214-11.3148 11.38674-11.31481 3.1012-3.01509h-10.2582l-13.064521 13.1313c-.659313.6619-.655932 1.7328.006762 2.3913zm5.9392-11.2886h-.076l.0752-.0009zm0 0 11.2413 11.314-11.3866 11.3148-3.1014 3.015h10.2583l13.0645-13.1304c.6593-.6618.656-1.7329-.0068-2.3913l-10.1872-10.1221z" fill="#00e0ff" fill-rule="evenodd"/></svg>

<svg width="38" height="40" viewBox="0 0 38 40" fill="none" xmlns="http://www.w3.org/2000/svg">
<path fill-rule="evenodd" clip-rule="evenodd" d="M10.6864 25.6447H20.5693L9.32716 14.3299L20.7139 3.01509L23.8151 0H13.5569L0.492379 13.1313C-0.166934 13.7932 -0.163553 14.8641 0.499141 15.5226L10.6864 25.6447ZM16.6256 14.3561H16.5496L16.6248 14.3552L16.6256 14.3561ZM16.6256 14.3561L27.8669 25.6701L16.4803 36.9849L13.3789 39.9999H23.6372L36.7017 26.8695C37.361 26.2077 37.3577 25.1366 36.6949 24.4782L26.5077 14.3561H16.6256Z" fill="#00E0FF"/>
</svg>
